client/filepreviewer/pdfjs/web/images/toolbarButton-zoomIn.svg

<svg width="16" height="16" viewBox="0 0 16 16" fill="none" xmlns="http://www.w3.org/2000/svg">
<path d="M7.00488 9.75V14C7.00488 14.1658 7.07073 14.3247 7.18794 14.4419C7.30515 14.5592 7.46412 14.625 7.62988 14.625C7.79564 14.625 7.95461 14.5592 8.07183 14.4419C8.18904 14.3247 8.25488 14.1658 8.25488 14V9.75L8.75488 9.25H13.0049C13.1706 9.25 13.3296 9.18415 13.4468 9.06694C13.564 8.94973 13.6299 8.79076 13.6299 8.625C13.6299 8.45924 13.564 8.30027 13.4468 8.18306C13.3296 8.06585 13.1706 8 13.0049 8H8.75488L8.25488 7.5V3.25C8.25488 3.08424 8.18904 2.92527 8.07183 2.80806C7.95461 2.69085 7.79564 2.625 7.62988 2.625C7.46412 2.625 7.30515 2.69085 7.18794 2.80806C7.07073 2.92527 7.00488 3.08424 7.00488 3.25V7.5L6.50488 8H2.25488C2.08912 8 1.93015 8.06585 1.81294 8.18306C1.69573 8.30027 1.62988 8.45924 1.62988 8.625C1.62988 8.79076 1.69573 8.94973 1.81294 9.06694C1.93015 9.18415 2.08912 9.25 2.25488 9.25H6.39188L7.00488 9.75Z" fill="black"/>
</svg>

<svg xmlns="http://www.w3.org/2000/svg" width="16" height="16" fill="none"><path fill="#000" d="M7.005 9.75V14a.625.625 0 1 0 1.25 0V9.75l.5-.5h4.25a.625.625 0 0 0 0-1.25h-4.25l-.5-.5V3.25a.625.625 0 1 0-1.25 0V7.5l-.5.5h-4.25a.625.625 0 0 0 0 1.25h4.137l.613.5Z"/></svg>
